X: 24
T: Va t'en regret celuy qui me convoye
N: Derived from Com3044-Va_ten_regret_celuy_qui_me_convoye.krn
C: Loyset Comp\`ere
%%abc-version 2.0
%%abcx-abcm2ps-target-version 5.9.1 (29 Sep 2008)
%%abc-creator hum2abc beta
%%abcx-conversion-date 2019/02/16 20:28:09
%%abc-edited-by Jesse Rodin
%%abc-edited-by Megan K. Eagen 2013/11/30
%%abcx-initial-encoding-date 2013/11/30/
%%humdrum-veritas 1896968674
%%humdrum-veritas-data 2738275766
%%linebreak <none>
%%barnumbers 0
L: 1/4
M: 2/1
Q: 1/2=120
V: 1 clef=treble
V: 2 clef=treble-8
V: 3 clef=bass
K: F
[V:1] z8 | 
[V:2] c4c4 | 
[V:3] C,4F,4 | 
[V:1] z4F4 | 
[V:2] c4d4- | 
[V:3] E,4D,4- | 
[V:1] F4F4 | 
[V:2] d4d4 | 
[V:3] D,4D,4 | 
[V:1] G8 | 
[V:2] e4e2e2- | 
[V:3] C,4C,2G,2- | 
[V:1] G4A4 | 
[V:2] e2e2f4- | 
[V:3] G,2G,2F,4 | 
[V:1] A2A4A2 | 
[V:2] f2edc2BA | 
[V:3] F,4z2F,2- | 
[V:1] B4A2G2- | 
[V:2] G4F2c2 | 
[V:3] F,2E,2F,2C,2 | 
[V:1] GFF4E2 | 
[V:2] A2F2G4 | 
[V:3] D,4C,4 | 
[V:1] F8- | 
[V:2] F8 | 
[V:3] z4F,4 | 
[V:1] F4z4 | 
[V:2] z4F4 | 
[V:3] F,4F,G,A,B, | 
[V:1] A4A4 | 
[V:2] F4F4 | 
[V:3] C4CB,A,G, | 
[V:1] A4G4- | 
[V:2] c8 | 
[V:3] F,4E,2C,2 | 
[V:1] G4A3B | 
[V:2] e4f4- | 
[V:3] G,4F,4- | 
[V:1] c2d4cB | 
[V:2] f4d4 | 
[V:3] F,4B,,4 | 
[V:1] A2G2c4 | 
[V:2] c8 | 
[V:3] F,2E,2C,4 | 
[V:1] cBAGF2B2- | 
[V:2] e4d4 | 
[V:3] z2C,2D,2B,,2 | 
[V:1] BAA4G2 | 
[V:2] c2A2B4 | 
[V:3] F,4G,4 | 
[V:1] A8- | 
[V:2] A8 | 
[V:3] D,4z4 | 
[V:1] A4z4 | 
[V:2] z4d4 | 
[V:3] D,4D,4 | 
[V:1] A4A4 | 
[V:2] d4d4 | 
[V:3] D,4D,2F,2- | 
[V:1] A4G4- | 
[V:2] c8 | 
[V:3] F,E,F,2E,2C,2 | 
[V:1] G4A2Bc | 
[V:2] e4f4 | 
[V:3] G,4F,2G,A, | 
[V:1] d2c4B2 | 
[V:2] fedcd4 | 
[V:3] B,2A,2G,4 | 
[V:1] A2GFE2A2- | 
[V:2] z2c4BA | 
[V:3] F,2A,4G,F, | 
[V:1] A2G2F2G2- | 
[V:2] B4A2c2 | 
[V:3] G,4D,2E,2 | 
[V:1] GFF4E2 | 
[V:2] BAGFG4 | 
[V:3] F,2D,2C,4 | 
[V:1] F8 | 
[V:2] F4z4 | 
[V:3] z2F,2F,2F,2 | 
[V:1] z8 | 
[V:2] F4F4 | 
[V:3] F,G,A,B,C4 | 
[V:1] A4A4 | 
[V:2] F4c4- | 
[V:3] CB,A,G,F,4- | 
[V:1] A4G4 | 
[V:2] c2d2e2de | 
[V:3] F,4E,4 | 
[V:1] z2d3cc2- | 
[V:2] f4e3c | 
[V:3] D,2F,2G,2A,2 | 
[V:1] c2=B2c4- | 
[V:2] d4c4- | 
[V:3] G,4C,3D, | 
[V:1] c2BAA2GF | 
[V:2] c4c4 | 
[V:3] E,2F,4E,D, | 
[V:1] E4z2D2- | 
[V:2] c4d4- | 
[V:3] C,4B,,4 | 
[V:1] DEFGA2B2- | 
[V:2] d2d2dcBA | 
[V:3] B,,C,D,E,F,2G,2- | 
[V:1] BAG4^F2 | 
[V:2] G2B2A4 | 
[V:3] G,F,G,2D,4 | 
[V:1] G8 | 
[V:2] G3AB2c2- | 
[V:3] z2G,3F,E,D, | 
[V:1] z4A4 | 
[V:2] cBAGF4- | 
[V:3] C,2C3B,A,G, | 
[V:1] A4G4 | 
[V:2] F4z4 | 
[V:3] F,2D,2E,4 | 
[V:1] F4z4 | 
[V:2] A4A4 | 
[V:3] D,4C,2F,2- | 
[V:1] B4A2A2 | 
[V:2] G4F4 | 
[V:3] F,2E,2F,2D,2 | 
[V:1] G2G2F2ED | 
[V:2] z4B4 | 
[V:3] _E,3D,B,,4 | 
[V:1] CDEFGAB2 | 
[V:2] A2A2G2G2 | 
[V:3] z4B,4 | 
[V:1] A2GFEFGA | 
[V:2] F2EDC2c2 | 
[V:3] C2F,2G,2C,2 | 
[V:1] GFF4E2 | 
[V:2] BAGFG4 | 
[V:3] D,4C,4 | 
[V:1] F8 |]  
[V:2] F8 |]  
[V:3] F,8 |]  



